file/telegram.svg

<svg clip-rule="evenodd" fill-rule="evenodd" stroke-linejoin="round" stroke-miterlimit="1.41421" viewBox="0 0 560 400" xmlns="http://www.w3.org/2000/svg" xmlns:xlink="http://www.w3.org/1999/xlink"><linearGradient id="a" gradientTransform="matrix(-60 139.992 -139.992 -60 160.01 40.008)" gradientUnits="userSpaceOnUse" x1="0" x2="1" y1="0" y2="0"><stop offset="0" stop-color="#37aee2"/><stop offset="1" stop-color="#1e96c8"/></linearGradient><g transform="matrix(1.25 0 0 1.25 130 50)"><circle cx="120" cy="120" fill="url(#a)" r="120"/><path d="m44.691 125.87c14.028-7.727 29.687-14.176 44.318-20.658 25.171-10.617 50.442-21.05 75.968-30.763 4.966-1.655 13.89-3.273 14.765 4.087-.479 10.418-2.45 20.775-3.802 31.132-3.431 22.776-7.398 45.474-11.265 68.175-1.333 7.561-10.805 11.476-16.866 6.637-14.566-9.839-29.244-19.582-43.624-29.649-4.711-4.787-.342-11.66 3.864-15.078 11.997-11.824 24.72-21.868 36.09-34.302 3.067-7.407-5.995-1.165-8.984.748-16.424 11.318-32.446 23.327-49.762 33.274-8.845 4.869-19.154.708-27.995-2.009-7.927-3.282-19.543-6.589-12.708-11.593z" fill="#fff" fill-rule="nonzero"/></g></svg>

<?xml version="1.0" encoding="UTF-8" standalone="no"?>
<!DOCTYPE svg PUBLIC "-//W3C//DTD SVG 1.1//EN" "http://www.w3.org/Graphics/SVG/1.1/DTD/svg11.dtd">
<svg width="100%" height="100%" viewBox="0 0 560 400" version="1.1" xmlns="http://www.w3.org/2000/svg" xmlns:xlink="http://www.w3.org/1999/xlink" xml:space="preserve" xmlns:serif="http://www.serif.com/" style="fill-rule:evenodd;clip-rule:evenodd;stroke-linejoin:round;stroke-miterlimit:1.41421;">
    <g transform="matrix(1.25,0,0,1.25,130,50)">
        <circle id="circle11" cx="120" cy="120" r="120" style="fill:url(#_Linear1);"/>
        <path id="path13" d="M44.691,125.87C58.719,118.143 74.378,111.694 89.009,105.212C114.18,94.595 139.451,84.162 164.977,74.449C169.943,72.794 178.867,71.176 179.742,78.536C179.263,88.954 177.292,99.311 175.94,109.668C172.509,132.444 168.542,155.142 164.675,177.843C163.342,185.404 153.87,189.319 147.809,184.48C133.243,174.641 118.565,164.898 104.185,154.831C99.474,150.044 103.843,143.171 108.049,139.753C120.046,127.929 132.769,117.885 144.139,105.451C147.206,98.044 138.144,104.286 135.155,106.199C118.731,117.517 102.709,129.526 85.393,139.473C76.548,144.342 66.239,140.181 57.398,137.464C49.471,134.182 37.855,130.875 44.69,125.871L44.691,125.87Z" style="fill:white;fill-rule:nonzero;"/>
    </g>
    <defs>
        <linearGradient id="_Linear1" x1="0" y1="0" x2="1" y2="0" gradientUnits="userSpaceOnUse" gradientTransform="matrix(-60,139.992,-139.992,-60,160.01,40.008)"><stop offset="0" style="stop-color:rgb(55,174,226);stop-opacity:1"/><stop offset="1" style="stop-color:rgb(30,150,200);stop-opacity:1"/></linearGradient>
    </defs>
</svg>
